X: 1
T: The Fermoy Lasses
R: reel
M: 4/4
L: 1/8
K: Emin
|GE (3EEE BE (3EEE|GE (3EEE BcBA|GE (3EEE BE (3EEE|AFDF AcBA|
|GE (3EEE BE (3EEE|GE (3EEE BcBA|(3GGG GF GBdB|AFDF AcBA|
|(3GGG BG dGBG|(3GGG Bd efg2|(3GGG BG dGBG|AFDF AcBA|
|(3GGG BG dGBG|(3GGG Bd efg2|afge fded|AFDF AcBA|


Tune 219	Setting 12900

